Papirus/22x22/panel/skype-status-connecting-0.svg

<?xml version="1.0" encoding="UTF-8" standalone="no"?>
<svg xmlns:dc="http://purl.org/dc/elements/1.1/" xmlns:cc="http://creativecommons.org/ns#" xmlns:rdf="http://www.w3.org/1999/02/22-rdf-syntax-ns#" xmlns:svg="http://www.w3.org/2000/svg" xmlns="http://www.w3.org/2000/svg" version="1.0" width="22" height="22" id="svg2817">
    <metadata id="metadata57">
        <rdf:RDF>
            <cc:Work rdf:about="">
                <dc:format>
                    image/svg+xml
                </dc:format>
                <dc:type rdf:resource="http://purl.org/dc/dcmitype/StillImage"/>
                <dc:title/>
            </cc:Work>
        </rdf:RDF>
    </metadata>
    <path id="path4554" d="M 7 3 A 4 4 0 0 0 3 7 A 4 4 0 0 0 4.1152344 9.7695312 A 7 7 0 0 0 4 11 A 7 7 0 0 0 11 18 A 7 7 0 0 0 12.238281 17.886719 A 4 4 0 0 0 15 19 A 4 4 0 0 0 19 15 A 4 4 0 0 0 17.884766 12.230469 A 7 7 0 0 0 18 11 A 7 7 0 0 0 11 4 A 7 7 0 0 0 9.7617188 4.1132812 A 4 4 0 0 0 7 3 z M 11 6.0898438 A 1 1 0 0 1 12 7.0898438 A 1 1 0 0 1 11 8.0898438 A 3 3 0 0 0 8 11.089844 L 9 11.089844 L 7 14.089844 L 5 11.089844 L 6 11.089844 A 5 5 0 0 1 10.90625 6.09375 A 1 1 0 0 1 11 6.0898438 z M 15 8.0898438 L 17 11.089844 L 16 11.089844 A 5 5 0 0 1 11.09375 16.085938 A 1 1 0 0 1 11 16.089844 A 1 1 0 0 1 10 15.089844 A 1 1 0 0 1 11 14.089844 A 3 3 0 0 0 14 11.089844 L 13 11.089844 L 15 8.0898438 z " style="opacity:1000002;fill:#ffffff;fill-opacity:1;stroke:none;stroke-width:2;stroke-linecap:round;stroke-linejoin:round;stroke-miterlimit:4;stroke-dasharray:none;stroke-opacity:1"/>
    <path style="fill:#2d9cf2" d="M -22.069,-6.0812" id="path53"/>
</svg>

<?xml version="1.0" encoding="UTF-8" standalone="no"?>
<svg id="svg2817" xmlns:rdf="http://www.w3.org/1999/02/22-rdf-syntax-ns#" xmlns="http://www.w3.org/2000/svg" height="22" width="22" version="1.0" xmlns:cc="http://creativecommons.org/ns#" xmlns:dc="http://purl.org/dc/elements/1.1/">
 <metadata id="metadata57">
  <rdf:RDF>
   <cc:Work rdf:about="">
    <dc:format>image/svg+xml</dc:format>
    <dc:type rdf:resource="http://purl.org/dc/dcmitype/StillImage"/>
    <dc:title/>
   </cc:Work>
  </rdf:RDF>
 </metadata>
 <path id="path4554" opacity="1e6" d="m7 3a4 4 0 0 0 -4 4 4 4 0 0 0 1.1152 2.7695 7 7 0 0 0 -0.1152 1.2305 7 7 0 0 0 7 7 7 7 0 0 0 1.238 -0.113 4 4 0 0 0 2.762 1.113 4 4 0 0 0 4 -4 4 4 0 0 0 -1.115 -2.77 7 7 0 0 0 0.115 -1.23 7 7 0 0 0 -7 -7 7 7 0 0 0 -1.2383 0.1133 4 4 0 0 0 -2.7617 -1.1133zm4 3.0898a1 1 0 0 1 1 1 1 1 0 0 1 -1 1 3 3 0 0 0 -3 3.0002h1l-2 3-2-3h1a5 5 0 0 1 4.906 -4.9962 1 1 0 0 1 0.094 -0.004zm4 2l2 3.0002h-1a5 5 0 0 1 -4.906 4.996 1 1 0 0 1 -0.094 0.004 1 1 0 0 1 -1 -1 1 1 0 0 1 1 -1 3 3 0 0 0 3 -3h-1l2-3.0002z" fill="#fff"/>
 <path id="path53" fill="#2d9cf2" d="m-22.069-6.0812"/>
</svg>
